app/public/images/nextjs.svg

<?xml version="1.0" encoding="UTF-8"?>
<svg width="207px" height="124px" viewBox="0 0 207 124" version="1.1" xmlns="http://www.w3.org/2000/svg" xmlns:xlink="http://www.w3.org/1999/xlink">
    <!-- Generator: Sketch 51.2 (57519) - http://www.bohemiancoding.com/sketch -->
    <title>next-black</title>
    <desc>Created with Sketch.</desc>
    <defs></defs>
    <g id="Page-1" stroke="none" stroke-width="1" fill="none" fill-rule="evenodd">
        <g id="Black-Next.js" transform="translate(-247.000000, -138.000000)" fill="#000000" fill-rule="nonzero">
            <g id="next-black" transform="translate(247.000000, 138.000000)">
                <g id="EXT-+-Type-something">
                    <path d="M48.9421964,32.6320058 L87.9011585,32.6320058 L87.9011585,35.7136421 L52.5134345,35.7136421 L52.5134345,58.9070103 L85.7908813,58.9070103 L85.7908813,61.9886466 L52.5134345,61.9886466 L52.5134345,87.4526941 L88.306981,87.4526941 L88.306981,90.5343303 L48.9421964,90.5343303 L48.9421964,32.6320058 Z M91.3912326,32.6320058 L95.5306221,32.6320058 L113.8738,58.0960534 L132.622801,32.6320058 L158.124498,0.286809811 L116.22757,60.7722112 L137.817329,90.5343303 L133.51561,90.5343303 L113.8738,63.4483691 L94.1508254,90.5343303 L89.9302715,90.5343303 L111.682358,60.7722112 L91.3912326,32.6320058 Z M139.359455,35.713642 L139.359455,32.6320058 L183.756439,32.6320058 L183.756439,35.7136421 L163.302983,35.7136421 L163.302983,90.5343303 L159.731745,90.5343303 L159.731745,35.7136421 L139.359455,35.713642 Z" id="EXT"></path>
                    <polygon id="Type-something" points="0.202923647 32.6320058 4.66697141 32.6320058 66.2235778 124.303087 40.785176 90.5343303 3.93649086 37.0111732 3.77416185 90.5343303 0.202923647 90.5343303"></polygon>
                </g>
                <path d="M183.396622,86.5227221 C184.134938,86.5227221 184.673474,85.9601075 184.673474,85.233037 C184.673474,84.5059658 184.134938,83.9433513 183.396622,83.9433513 C182.666993,83.9433513 182.11977,84.5059658 182.11977,85.233037 C182.11977,85.9601075 182.666993,86.5227221 183.396622,86.5227221 Z M186.905793,83.1297235 C186.905793,85.2763149 188.460599,86.678523 190.727662,86.678523 C193.142388,86.678523 194.601647,85.233037 194.601647,82.7229099 L194.601647,73.8855335 L192.655968,73.8855335 L192.655968,82.7142542 C192.655968,84.1078073 191.952397,84.8521899 190.710289,84.8521899 C189.598473,84.8521899 188.842785,84.1597409 188.816727,83.1297235 L186.905793,83.1297235 Z M197.146664,83.0172011 C197.285642,85.2503478 199.153145,86.678523 201.932686,86.678523 C204.903321,86.678523 206.762139,85.1811034 206.762139,82.792155 C206.762139,80.9138876 205.702439,79.8752151 203.131364,79.2779777 L201.750279,78.9404092 C200.117298,78.5595622 199.457158,78.0488813 199.457158,77.1573541 C199.457158,76.0321243 200.482113,75.296398 202.019547,75.296398 C203.478806,75.296398 204.48639,76.0148135 204.668797,77.1660091 L206.562359,77.1660091 C206.44944,75.0626962 204.590622,73.5825873 202.045605,73.5825873 C199.309495,73.5825873 197.48542,75.0626962 197.48542,77.2871878 C197.48542,79.1221767 198.519063,80.2127835 200.786126,80.7407758 L202.401734,81.1302779 C204.060773,81.5197807 204.790402,82.091051 204.790402,83.0431676 C204.790402,84.1510859 203.643842,84.9560573 202.08035,84.9560573 C200.403939,84.9560573 199.240006,84.2030196 199.074971,83.0172011 L197.146664,83.0172011 Z" id=".JS"></path>
            </g>
        </g>
    </g>
</svg>

<?xml version="1.0" encoding="UTF-8" standalone="no"?>
<svg
   width="42"
   height="42"
   viewBox="0 0 42 42"
   version="1.1"
   id="svg1142"
   sodipodi:docname="nextjs.svg"
   inkscape:version="1.2.1 (9c6d41e, 2022-07-14)"
   xmlns:inkscape="http://www.inkscape.org/namespaces/inkscape"
   xmlns:sodipodi="http://sodipodi.sourceforge.net/DTD/sodipodi-0.dtd"
   xmlns="http://www.w3.org/2000/svg"
   xmlns:svg="http://www.w3.org/2000/svg"
   xmlns:rdf="http://www.w3.org/1999/02/22-rdf-syntax-ns#"
   xmlns:cc="http://creativecommons.org/ns#"
   xmlns:dc="http://purl.org/dc/elements/1.1/">
  <sodipodi:namedview
     id="namedview1144"
     pagecolor="#ffffff"
     bordercolor="#666666"
     borderopacity="1.0"
     inkscape:showpageshadow="2"
     inkscape:pageopacity="0.0"
     inkscape:pagecheckerboard="0"
     inkscape:deskcolor="#d1d1d1"
     showgrid="false"
     inkscape:zoom="3.1618948"
     inkscape:cx="108.95366"
     inkscape:cy="55.979091"
     inkscape:window-width="1390"
     inkscape:window-height="916"
     inkscape:window-x="39"
     inkscape:window-y="38"
     inkscape:window-maximized="0"
     inkscape:current-layer="svg1142" />
  <!-- Generator: Sketch 51.2 (57519) - http://www.bohemiancoding.com/sketch -->
  <title
     id="title1129">next-black</title>
  <desc
     id="desc1131">Created with Sketch.</desc>
  <defs
     id="defs1133" />
  <g
     id="Page-1"
     stroke="none"
     stroke-width="1"
     fill="none"
     fill-rule="evenodd"
     transform="matrix(0.19364907,0,0,0.19364907,0.96070395,8.9366409)">
    <g
       id="Black-Next.js"
       transform="translate(-247,-138)"
       fill="#000000"
       fill-rule="nonzero">
      <g
         id="next-black"
         transform="translate(247,138)">
        <g
           id="EXT-+-Type-something">
          <path
             d="m 48.942196,32.632006 h 38.958962 v 3.081636 H 52.513435 V 58.90701 h 33.277446 v 3.081637 H 52.513435 V 87.452694 H 88.306981 V 90.53433 H 48.942196 Z m 42.449037,0 h 4.139389 L 113.8738,58.096053 132.6228,32.632006 158.1245,0.28680981 116.22757,60.772211 137.81733,90.53433 h -4.30172 L 113.8738,63.448369 94.150825,90.53433 H 89.930272 L 111.68236,60.772211 Z m 47.968217,3.081636 v -3.081636 h 44.39699 v 3.081636 H 163.30298 V 90.53433 h -3.57124 V 35.713642 Z"
             id="EXT" />
          <polygon
             id="Type-something"
             points="66.223578,124.30309 40.785176,90.53433 3.9364909,37.011173 3.7741619,90.53433 0.20292365,90.53433 0.20292365,32.632006 4.6669714,32.632006 " />
        </g>
        <path
           d="m 183.39662,86.522722 c 0.73832,0 1.27685,-0.562614 1.27685,-1.289685 0,-0.727071 -0.53853,-1.289686 -1.27685,-1.289686 -0.72963,0 -1.27685,0.562615 -1.27685,1.289686 0,0.727071 0.54722,1.289685 1.27685,1.289685 z m 3.50917,-3.392999 c 0,2.146592 1.55481,3.5488 3.82187,3.5488 2.41473,0 3.87399,-1.445486 3.87399,-3.955613 v -8.837377 h -1.94568 v 8.828721 c 0,1.393553 -0.70357,2.137936 -1.94568,2.137936 -1.11182,0 -1.86751,-0.692449 -1.89356,-1.722467 z m 10.24087,-0.112522 c 0.13898,2.233147 2.00648,3.661322 4.78603,3.661322 2.97063,0 4.82945,-1.49742 4.82945,-3.886368 0,-1.878267 -1.0597,-2.91694 -3.63078,-3.514177 l -1.38108,-0.337569 c -1.63298,-0.380847 -2.29312,-0.891528 -2.29312,-1.783055 0,-1.12523 1.02495,-1.860956 2.56239,-1.860956 1.45926,0 2.46684,0.718416 2.64925,1.869611 h 1.89356 c -0.11292,-2.103313 -1.97174,-3.583422 -4.51676,-3.583422 -2.73611,0 -4.56018,1.480109 -4.56018,3.704601 0,1.834989 1.03364,2.925595 3.30071,3.453588 l 1.6156,0.389502 c 1.65904,0.389503 2.38867,0.960773 2.38867,1.91289 0,1.107918 -1.14656,1.912889 -2.71005,1.912889 -1.67641,0 -2.84034,-0.753037 -3.00538,-1.938856 z"
           id=".JS" />
      </g>
    </g>
  </g>
  <metadata
     id="metadata1263">
    <rdf:RDF>
      <cc:Work
         rdf:about="">
        <dc:title>next-black</dc:title>
      </cc:Work>
    </rdf:RDF>
  </metadata>
</svg>
